X:314
T: Na ni hai xiao shuo
N: C0916
O: China, Sichuan, Nanjiang
S: MM,]
M: 2/4
L: 1/16
K: A
e2c2b2c2 | e2c4c2 | b2bce8
z4z3c | a3bc2ab | a3ba4
a3fa2a2 | f2aaa2a2 | b2aaa2a2
f2aaa2a2 | b2aaa2a2
e3fa4 | b2a4f2 | e3fa4
c3ba2b2 | c2f2a4
f3ba2f2 | e4e2c2
c3ba2b2 | a4a4 | e8- | e8
e3ec2b2 | c2b4c2
e4c2b2 | a2aab4
c2a2b2a2 | e2a4b2
c4b2a2 | f2ffa4
c2b2c4 | a2aaa2z2
c2b2e4c2b2 | a2aab4
c3bc2c2 | e3fa4
b2a4c2 | e3fa4
f3bf2a2 | e4e2c2 | c3BA2B2 | A4A4
c2cbc2b2 | e2c4a2 | b2bce8
c3bc2ab | a3ba2
f2 | a3aa2a2 | a3aa2a2 | e3fa4
b2a4f2 | e3fa4
c3ba2b2 | c2f2a4
f3ba2f2 | e4e2c2
c3ba2b2 | a4a2z2

